images/close.svg

<svg fill="none" height="20" viewBox="0 0 20 20" width="20" xmlns="http://www.w3.org/2000/svg"><path d="m.608599 17.5793 7.633201-7.63324-7.608701-7.6087 1.704161-1.704158 7.6087 7.608698 7.63324-7.633198 1.7531 1.753158-7.6332 7.6332 7.6087 7.60874-1.7041 1.7041-7.60874-7.6087-7.6332 7.6332z" fill="#fff"/></svg>

<svg width="20" height="20" viewBox="0 0 20 20" fill="none" xmlns="http://www.w3.org/2000/svg">
<path d="M0.608599 17.5793L8.2418 9.94606L0.633099 2.33736L2.33726 0.633202L9.94596 8.2419L17.5792 0.608702L19.3323 2.36186L11.6991 9.99506L19.3078 17.6038L17.6037 19.3079L9.99496 11.6992L2.36176 19.3324L0.608599 17.5793Z" fill="white"/>
</svg>
